static/img/air-cloud.svg

<svg width="44" height="32" viewBox="0 0 44 32" fill="none" xmlns="http://www.w3.org/2000/svg">
<path d="M11 32C7.96667 32 5.375 30.95 3.225 28.85C1.075 26.75 0 24.1833 0 21.15C0 18.55 0.783333 16.2333 2.35 14.2C3.91667 12.1667 5.96667 10.8667 8.5 10.3C9.33333 7.23333 11 4.75 13.5 2.85C16 0.95 18.8333 0 22 0C25.9 0 29.2083 1.35833 31.925 4.075C34.6417 6.79167 36 10.1 36 14C38.3 14.2667 40.2083 15.2583 41.725 16.975C43.2417 18.6917 44 20.7 44 23C44 25.5 43.125 27.625 41.375 29.375C39.625 31.125 37.5 32 35 32H11ZM11 28H35C36.4 28 37.5833 27.5167 38.55 26.55C39.5167 25.5833 40 24.4 40 23C40 21.6 39.5167 20.4167 38.55 19.45C37.5833 18.4833 36.4 18 35 18H32V14C32 11.2333 31.025 8.875 29.075 6.925C27.125 4.975 24.7667 4 22 4C19.2333 4 16.875 4.975 14.925 6.925C12.975 8.875 12 11.2333 12 14H11C9.06667 14 7.41667 14.6833 6.05 16.05C4.68333 17.4167 4 19.0667 4 21C4 22.9333 4.68333 24.5833 6.05 25.95C7.41667 27.3167 9.06667 28 11 28Z" fill="#21A9DC"/>
</svg>

<svg xmlns="http://www.w3.org/2000/svg" width="44" height="32" fill="none" viewBox="0 0 44 32"><path fill="#21a9dc" d="M11 32q-4.55 0-7.775-3.15T0 21.15q0-3.9 2.35-6.95t6.15-3.9q1.25-4.6 5-7.45T22 0q5.85 0 9.925 4.075T36 14q3.45.4 5.725 2.975T44 23q0 3.75-2.625 6.375T35 32zm0-4h24q2.1 0 3.55-1.45T40 23t-1.45-3.55T35 18h-3v-4q0-4.15-2.925-7.075T22 4t-7.075 2.925T12 14h-1q-2.9 0-4.95 2.05T4 21t2.05 4.95T11 28"/></svg>
